X: 5
T:Bucimis
M:8+7/8
L:1/8
Z:1987 by John Chambers <jc@eddie.mit.edu> http://eddie.mit.edu/~jc/music
Z:bc/
K:ADor
P: A (4x)
|: "Am"A2 de eA eA | ~e2d dc de | cE BE cE BE | "G"GFG "Am"~A2 AE :|
P: B (4x)
|: "Am"cE BE cE BE | "G"GFG "Am"AB cd | cE BE cE BE | "G"GFG "Am"~A2 "fi
ne"AE :|
P: C
|: "Am"cd dB cA BG | A2B ~c2 cE | cd dB cA BG | ~A2e ~A2 A2 :|
P: D
K: Dm
|: "A"[ge][fd] [e^c][d_B] [ec][cA] [dB][BE] \
| [^cA][d_B][ec] ~[c2A2] [cA][BE] \
| [AE][_BG] [^cA][dB] [ec][fd] ~[e2c2] \
| "Gm"[d_B][^cA][BG] "A"~[c2A2] [cA][AE] :|
P: E
|: "A"[^cA][d_B] ~[e2c2] [ec][dB] ~[e2c2]  \
| "Gm"[d_B][^cA][BG] "A"~[c2A2] [cA][BE] \
| [AE][_BG] [^cA][dB] [ec][fd] ~[e2c2] \
| "Gm"[d_B][^cA][BG] "A"~[c2A2] [cA][AE] :|
P: F
|: "A"[d_B][e^c] [ec][AE] [dB][ec] [ec][AE] \
| "Gm"[fd][e^c][d_B] "A"~[c2A2] [BG][AE] \
| [d_B][e^c] [ec][AE] [dB][ec] [ec][AE] \
| "Gm"[fd][e^c][d_B] "A"~[e2c2] [ec][AE] :|
P: G
K: A
|: "A"dE ~c2 dE ~c2 | AGA "E7"Bc de | "A"dE ~c2 dE ~c2 | "B7"AcA "E"B2 B
2 :|
W:
W: From "Falaleiro" http://home.t-online.de/home/pheld/homepage.htm

